X: 194
T:Trip To Margate
% Nottingham Music Database
S:Trad, arr Phil Rowe
M:6/8
K:F
"F"fcf agf|"C"edc "Bb"b3|"F"agf "C"efg|"F"fcB AGF|
"F"fcf agf|"C"edc "Bb"b3|"F"agf "C"efg|"F"f3 -f3::
"F"AFA cBA|"Gm"BGB "C7"dcB|"F"AFA cBA|"Gm"BGG "C7"G3|
"F"AFA cBA|"Bb"def "C7"gab|"F"agf "C"efg|"F"f3 -f3:|<end>
<start>
